X: 262
M: 6/8
L: 1/8
K: G
d/c/ |\
fed AB^c |1 dAF D2 :|2 D3- D2 :|
|: d |\
e2d def | e2d e2d |\
c2B A>BG | FDF D2D |\

